X:171
T: ES WAREN MAL DREI FRANZOSEN
N: E1305D
O: Europa, Mitteleuropa, Deutschland, Hessen, Kassel
R: Staende -, Soldaten - Lied, Reiter
M: 4/4
L: 1/8
K: G
D2 | G2FEA2FD | G2D2z2
D2 | G2FEA2FD | G2D2z2
d2 | BBBBB2B
d | edecA2z
G | FAAAd3
c | BBAAG2

@@@ Tune index: 4855
